X:552
T: HOPP MARJAENCHE
N: E1833
O: Europa, Mitteleuropa, Deutschland, Rheinland
R: Kinder - Lied, Tanz
M: 6/8
L: 1/8
K: G
 | B2GGFG | B2GGFG |
A2AABc | e2dd2
B | B2GGFG | B2GGF
G | ABcDEF | A3G2z

@@@ Tune index: 5236
